X: 1522
T: Nişâburek Seyir
C: Erol Bingöl
O: Turkey
F: http://compmusic.upf.edu/node/140
N: nisaburek--seyir--senginsemai--1--erol_bingol
N: makam= nisaburek
N: form= seyir
N: usul= senginsemai = 6/4
M: 6/4
L: 1/16
K: C ^9/8f ^3/4c ^3/4g 
Q: 1/4=60
%%MIDI tuningsystem comma53
d4 e4 e4 f4 e2d2 c2B2  | c2d2 c2B2 c4 d4 e8  | \
w:   |   | 
a4 =g2f2 e4 f4 g2a2 f2e2  | 
w:   | 
e8 e3d c2d2 e8  | d4 d4 c4 d4 e8  | f4 e2d2 d2c2 c2B2 B8  | \
w:   |   |   | 
c8 A4 c4 B3A G2B2  | 
w:   | 
A16 z8  | |


